assets/img/braze_icons/line-chart-up-01.svg

<svg fill="none" height="24" viewBox="0 0 24 24" width="24" xmlns="http://www.w3.org/2000/svg"><g fill="#801ed7"><path d="m4.00001 3c0-.55228-.44772-1-1-1-.55229 0-1 .44772-1 1l-.00001 16.4319c-.00003.2524-.00006.4982.01695.7063.01868.2286.06274.4984.20104.7698.19175.3763.49771.6823.87403.874.27143.1383.54116.1824.76976.2011.20816.017.45396.0169.70635.0169h16.43187c.5523 0 1-.4477 1-1s-.4477-1-1-1h-16.39999c-.29653 0-.45879-.0008-.57537-.0103l-.01319-.0012-.00114-.0131c-.00953-.1166-.0103-.2789-.0103-.5754z"/><path d="m20.7297 8.68372c.3777-.40302.3571-1.03585-.046-1.41346-.403-.37761-1.0358-.357-1.4134.04602l-3.8153 4.07202-3.1229-1.62146c-.0064-.00336-.0135-.00711-.0212-.01121-.0051-.00271-.0105-.00557-.0161-.00856-.1337-.07144-.4115-.21981-.721-.2477-.2598-.0234-.5212.02134-.7584.12981-.2827.12925-.4953.36155-.5977.47342-.0029.0032-.0058.0063-.0086.0094-.0073.008-.014.0152-.02.0216l-3.91884 4.1827c-.37761.403-.357 1.0358.04602 1.4134.40303.3777 1.03586.3571 1.41347-.046l3.81525-4.072 3.1229 1.6215c.0107.0056.0232.0122.0373.0197.1337.0715.4115.2198.721.2477.2598.0234.5212-.0213.7584-.1298.2827-.1292.4953-.3615.5977-.4734.0107-.0117.0203-.0222.0286-.031z"/></g></svg>

<svg width="24" height="24" viewBox="0 0 24 24" fill="none" xmlns="http://www.w3.org/2000/svg">
<path d="M4.00001 3C4.00001 2.44772 3.55229 2 3.00001 2C2.44772 2 2.00001 2.44772 2.00001 3L2 19.4319C1.99997 19.6843 1.99994 19.9301 2.01695 20.1382C2.03563 20.3668 2.07969 20.6366 2.21799 20.908C2.40974 21.2843 2.7157 21.5903 3.09202 21.782C3.36345 21.9203 3.63318 21.9644 3.86178 21.9831C4.06994 22.0001 4.31574 22 4.56813 22L21 22C21.5523 22 22 21.5523 22 21C22 20.4477 21.5523 20 21 20H4.60001C4.30348 20 4.14122 19.9992 4.02464 19.9897L4.01145 19.9885L4.01031 19.9754C4.00078 19.8588 4.00001 19.6965 4.00001 19.4V3Z" fill="#801ED7"/>
<path d="M20.7297 8.68372C21.1074 8.2807 21.0868 7.64787 20.6837 7.27026C20.2807 6.89265 19.6479 6.91326 19.2703 7.31628L15.455 11.3883L12.3321 9.76684C12.3257 9.76348 12.3186 9.75973 12.3109 9.75563C12.3058 9.75292 12.3004 9.75006 12.2948 9.74707C12.1611 9.67563 11.8833 9.52726 11.5738 9.49937C11.314 9.47597 11.0526 9.52071 10.8154 9.62918C10.5327 9.75843 10.3201 9.99073 10.2177 10.1026C10.2148 10.1058 10.2119 10.1089 10.2091 10.112C10.2018 10.12 10.1951 10.1272 10.1891 10.1336L6.27026 14.3163C5.89265 14.7193 5.91326 15.3521 6.31628 15.7297C6.71931 16.1074 7.35214 16.0868 7.72975 15.6837L11.545 11.6117L14.6679 13.2332C14.6786 13.2388 14.6911 13.2454 14.7052 13.2529C14.8389 13.3244 15.1167 13.4727 15.4262 13.5006C15.686 13.524 15.9474 13.4793 16.1846 13.3708C16.4673 13.2416 16.6799 13.0093 16.7823 12.8974C16.793 12.8857 16.8026 12.8752 16.8109 12.8664L20.7297 8.68372Z" fill="#801ED7"/>
</svg>
